images/29653.svg

<?xml version="1.0" encoding="UTF-8"?>
<svg xmlns="http://www.w3.org/2000/svg" xmlns:xlink="http://www.w3.org/1999/xlink" width="300pt" height="300pt" viewBox="0 0 300 300" version="1.1">
<defs>
<g>
<symbol overflow="visible" id="glyph0-0">
<path style="stroke:none;" d="M 0.546875 1.9375 L 0.546875 -7.75 L 6.046875 -7.75 L 6.046875 1.9375 Z M 1.171875 1.328125 L 5.4375 1.328125 L 5.4375 -7.140625 L 1.171875 -7.140625 Z M 1.171875 1.328125 "/>
</symbol>
<symbol overflow="visible" id="glyph0-1">
<path style="stroke:none;" d="M 4.328125 -7.28125 C 3.546875 -7.28125 2.921875 -6.984375 2.453125 -6.390625 C 1.992188 -5.804688 1.765625 -5.007812 1.765625 -4 C 1.765625 -2.988281 1.992188 -2.1875 2.453125 -1.59375 C 2.921875 -1.007812 3.546875 -0.71875 4.328125 -0.71875 C 5.117188 -0.71875 5.742188 -1.007812 6.203125 -1.59375 C 6.660156 -2.1875 6.890625 -2.988281 6.890625 -4 C 6.890625 -5.007812 6.660156 -5.804688 6.203125 -6.390625 C 5.742188 -6.984375 5.117188 -7.28125 4.328125 -7.28125 Z M 4.328125 -8.171875 C 5.453125 -8.171875 6.351562 -7.789062 7.03125 -7.03125 C 7.707031 -6.28125 8.046875 -5.269531 8.046875 -4 C 8.046875 -2.738281 7.707031 -1.726562 7.03125 -0.96875 C 6.351562 -0.21875 5.453125 0.15625 4.328125 0.15625 C 3.203125 0.15625 2.300781 -0.21875 1.625 -0.96875 C 0.957031 -1.71875 0.625 -2.726562 0.625 -4 C 0.625 -5.269531 0.957031 -6.28125 1.625 -7.03125 C 2.300781 -7.789062 3.203125 -8.171875 4.328125 -8.171875 Z M 4.328125 -8.171875 "/>
</symbol>
<symbol overflow="visible" id="glyph0-2">
<path style="stroke:none;" d="M 1.078125 -8.015625 L 2.546875 -8.015625 L 6.09375 -1.3125 L 6.09375 -8.015625 L 7.15625 -8.015625 L 7.15625 0 L 5.6875 0 L 2.125 -6.703125 L 2.125 0 L 1.078125 0 Z M 1.078125 -8.015625 "/>
</symbol>
</g>
</defs>
<g id="surface19149">
<rect x="0" y="0" width="300" height="300" style="fill:rgb(100%,100%,100%);fill-opacity:1;stroke:none;"/>
<path style="fill:none;stroke-width:1.2;stroke-linecap:butt;stroke-linejoin:miter;stroke:rgb(100%,0%,0%);stroke-opacity:1;stroke-miterlimit:10;" d="M 131.640625 102.472656 L 120.867188 94.183594 "/>
<path style="fill:none;stroke-width:1.2;stroke-linecap:butt;stroke-linejoin:miter;stroke:rgb(0%,0%,0%);stroke-opacity:1;stroke-miterlimit:10;" d="M 120.867188 94.183594 L 110.09375 85.894531 "/>
<path style="fill:none;stroke-width:1.2;stroke-linecap:butt;stroke-linejoin:miter;stroke:rgb(0%,0%,0%);stroke-opacity:1;stroke-miterlimit:10;" d="M 122.53125 128.089844 L 127.085938 115.28125 "/>
<path style="fill:none;stroke-width:1.2;stroke-linecap:butt;stroke-linejoin:miter;stroke:rgb(100%,0%,0%);stroke-opacity:1;stroke-miterlimit:10;" d="M 127.085938 115.28125 L 131.640625 102.472656 "/>
<path style=" stroke:none;fill-rule:nonzero;fill:rgb(100%,100%,100%);fill-opacity:1;" d="M 127.640625 95.972656 L 136.640625 95.972656 L 136.640625 108.972656 L 127.640625 108.972656 Z M 127.640625 95.972656 "/>
<g style="fill:rgb(100%,0%,0%);fill-opacity:1;">
  <use xlink:href="#glyph0-1" x="127.640625" y="105.874023"/>
</g>
<path style="fill:none;stroke-width:1.2;stroke-linecap:butt;stroke-linejoin:miter;stroke:rgb(0%,0%,0%);stroke-opacity:1;stroke-miterlimit:10;" d="M 110.09375 85.894531 L 98.882812 93.582031 "/>
<path style="fill:none;stroke-width:1.2;stroke-linecap:butt;stroke-linejoin:miter;stroke:rgb(0%,0%,100%);stroke-opacity:1;stroke-miterlimit:10;" d="M 98.882812 93.582031 L 87.667969 101.265625 "/>
<path style="fill:none;stroke-width:1.2;stroke-linecap:butt;stroke-linejoin:miter;stroke:rgb(0%,0%,0%);stroke-opacity:1;stroke-miterlimit:10;" d="M 111.46875 92.710938 L 102.496094 98.855469 "/>
<path style="fill:none;stroke-width:1.2;stroke-linecap:butt;stroke-linejoin:miter;stroke:rgb(0%,0%,100%);stroke-opacity:1;stroke-miterlimit:10;" d="M 102.496094 98.855469 L 93.527344 105.003906 "/>
<path style="fill:none;stroke-width:1.2;stroke-linecap:butt;stroke-linejoin:miter;stroke:rgb(0%,0%,100%);stroke-opacity:1;stroke-miterlimit:10;" d="M 87.667969 101.265625 L 91.511719 114.304688 "/>
<path style="fill:none;stroke-width:1.2;stroke-linecap:butt;stroke-linejoin:miter;stroke:rgb(0%,0%,0%);stroke-opacity:1;stroke-miterlimit:10;" d="M 91.511719 114.304688 L 95.355469 127.34375 "/>
<path style=" stroke:none;fill-rule:nonzero;fill:rgb(100%,100%,100%);fill-opacity:1;" d="M 83.667969 94.765625 L 91.667969 94.765625 L 91.667969 107.765625 L 83.667969 107.765625 Z M 83.667969 94.765625 "/>
<g style="fill:rgb(0%,0%,100%);fill-opacity:1;">
  <use xlink:href="#glyph0-2" x="83.667969" y="104.666992"/>
</g>
<path style="fill:none;stroke-width:1.2;stroke-linecap:butt;stroke-linejoin:miter;stroke:rgb(0%,0%,0%);stroke-opacity:1;stroke-miterlimit:10;" d="M 95.355469 127.34375 L 122.53125 128.089844 "/>
<path style="fill:none;stroke-width:1.2;stroke-linecap:butt;stroke-linejoin:miter;stroke:rgb(0%,0%,0%);stroke-opacity:1;stroke-miterlimit:10;" d="M 98.25 121.023438 L 119.988281 121.621094 "/>
<path style="fill:none;stroke-width:1.2;stroke-linecap:butt;stroke-linejoin:miter;stroke:rgb(0%,0%,0%);stroke-opacity:1;stroke-miterlimit:10;" d="M 95.355469 127.34375 L 78.777344 148.886719 "/>
<path style="fill:none;stroke-width:1.2;stroke-linecap:butt;stroke-linejoin:miter;stroke:rgb(0%,0%,0%);stroke-opacity:1;stroke-miterlimit:10;" d="M 122.53125 128.089844 L 137.902344 150.515625 "/>
<path style="fill:none;stroke-width:1.2;stroke-linecap:butt;stroke-linejoin:miter;stroke:rgb(0%,0%,0%);stroke-opacity:1;stroke-miterlimit:10;" d="M 137.902344 150.515625 L 126.164062 175.035156 "/>
<path style="fill:none;stroke-width:1.2;stroke-linecap:butt;stroke-linejoin:miter;stroke:rgb(0%,0%,0%);stroke-opacity:1;stroke-miterlimit:10;" d="M 137.902344 150.515625 L 165.007812 148.417969 "/>
<path style="fill:none;stroke-width:1.2;stroke-linecap:butt;stroke-linejoin:miter;stroke:rgb(0%,0%,0%);stroke-opacity:1;stroke-miterlimit:10;" d="M 141.105469 156.683594 L 162.789062 155.003906 "/>
<path style="fill:none;stroke-width:1.2;stroke-linecap:butt;stroke-linejoin:miter;stroke:rgb(0%,0%,0%);stroke-opacity:1;stroke-miterlimit:10;" d="M 126.164062 175.035156 L 141.535156 197.460938 "/>
<path style="fill:none;stroke-width:1.2;stroke-linecap:butt;stroke-linejoin:miter;stroke:rgb(0%,0%,0%);stroke-opacity:1;stroke-miterlimit:10;" d="M 132.976562 173.664062 L 145.273438 191.601562 "/>
<path style="fill:none;stroke-width:1.2;stroke-linecap:butt;stroke-linejoin:miter;stroke:rgb(0%,0%,0%);stroke-opacity:1;stroke-miterlimit:10;" d="M 141.535156 197.460938 L 168.640625 195.363281 "/>
<path style="fill:none;stroke-width:1.2;stroke-linecap:butt;stroke-linejoin:miter;stroke:rgb(0%,0%,0%);stroke-opacity:1;stroke-miterlimit:10;" d="M 168.640625 195.363281 L 174.507812 183.101562 "/>
<path style="fill:none;stroke-width:1.2;stroke-linecap:butt;stroke-linejoin:miter;stroke:rgb(0%,0%,100%);stroke-opacity:1;stroke-miterlimit:10;" d="M 174.507812 183.101562 L 180.375 170.84375 "/>
<path style="fill:none;stroke-width:1.2;stroke-linecap:butt;stroke-linejoin:miter;stroke:rgb(0%,0%,100%);stroke-opacity:1;stroke-miterlimit:10;" d="M 188.335938 214.105469 L 178.488281 204.734375 "/>
<path style="fill:none;stroke-width:1.2;stroke-linecap:butt;stroke-linejoin:miter;stroke:rgb(0%,0%,0%);stroke-opacity:1;stroke-miterlimit:10;" d="M 178.488281 204.734375 L 168.640625 195.363281 "/>
<path style="fill:none;stroke-width:1.2;stroke-linecap:butt;stroke-linejoin:miter;stroke:rgb(0%,0%,100%);stroke-opacity:1;stroke-miterlimit:10;" d="M 190.773438 207.597656 L 182.898438 200.101562 "/>
<path style="fill:none;stroke-width:1.2;stroke-linecap:butt;stroke-linejoin:miter;stroke:rgb(0%,0%,0%);stroke-opacity:1;stroke-miterlimit:10;" d="M 182.898438 200.101562 L 175.019531 192.605469 "/>
<path style="fill:none;stroke-width:1.2;stroke-linecap:butt;stroke-linejoin:miter;stroke:rgb(0%,0%,100%);stroke-opacity:1;stroke-miterlimit:10;" d="M 180.375 170.84375 L 172.691406 159.628906 "/>
<path style="fill:none;stroke-width:1.2;stroke-linecap:butt;stroke-linejoin:miter;stroke:rgb(0%,0%,0%);stroke-opacity:1;stroke-miterlimit:10;" d="M 172.691406 159.628906 L 165.007812 148.417969 "/>
<path style="fill:none;stroke-width:1.2;stroke-linecap:butt;stroke-linejoin:miter;stroke:rgb(0%,0%,100%);stroke-opacity:1;stroke-miterlimit:10;" d="M 180.375 170.84375 L 193.851562 172.632812 "/>
<path style="fill:none;stroke-width:1.2;stroke-linecap:butt;stroke-linejoin:miter;stroke:rgb(0%,0%,0%);stroke-opacity:1;stroke-miterlimit:10;" d="M 193.851562 172.632812 L 207.324219 174.425781 "/>
<path style=" stroke:none;fill-rule:nonzero;fill:rgb(100%,100%,100%);fill-opacity:1;" d="M 176.375 164.34375 L 184.375 164.34375 L 184.375 177.34375 L 176.375 177.34375 Z M 176.375 164.34375 "/>
<g style="fill:rgb(0%,0%,100%);fill-opacity:1;">
  <use xlink:href="#glyph0-2" x="176.375" y="174.245117"/>
</g>
<path style="fill:none;stroke-width:1.2;stroke-linecap:butt;stroke-linejoin:miter;stroke:rgb(0%,0%,0%);stroke-opacity:1;stroke-miterlimit:10;" d="M 207.324219 174.425781 L 209.785156 187.792969 "/>
<path style="fill:none;stroke-width:1.2;stroke-linecap:butt;stroke-linejoin:miter;stroke:rgb(0%,0%,100%);stroke-opacity:1;stroke-miterlimit:10;" d="M 209.785156 187.792969 L 212.246094 201.164062 "/>
<path style="fill:none;stroke-width:1.2;stroke-linecap:butt;stroke-linejoin:miter;stroke:rgb(0%,0%,0%);stroke-opacity:1;stroke-miterlimit:10;" d="M 201.527344 178.257812 L 203.492188 188.953125 "/>
<path style="fill:none;stroke-width:1.2;stroke-linecap:butt;stroke-linejoin:miter;stroke:rgb(0%,0%,100%);stroke-opacity:1;stroke-miterlimit:10;" d="M 203.492188 188.953125 L 205.460938 199.648438 "/>
<path style="fill:none;stroke-width:1.2;stroke-linecap:butt;stroke-linejoin:miter;stroke:rgb(0%,0%,0%);stroke-opacity:1;stroke-miterlimit:10;" d="M 207.324219 174.425781 L 226.066406 154.730469 "/>
<path style="fill:none;stroke-width:1.2;stroke-linecap:butt;stroke-linejoin:miter;stroke:rgb(0%,0%,100%);stroke-opacity:1;stroke-miterlimit:10;" d="M 212.246094 201.164062 L 188.335938 214.105469 "/>
<path style=" stroke:none;fill-rule:nonzero;fill:rgb(100%,100%,100%);fill-opacity:1;" d="M 208.246094 194.664062 L 216.246094 194.664062 L 216.246094 207.664062 L 208.246094 207.664062 Z M 208.246094 194.664062 "/>
<g style="fill:rgb(0%,0%,100%);fill-opacity:1;">
  <use xlink:href="#glyph0-2" x="208.246094" y="204.56543"/>
</g>
<path style=" stroke:none;fill-rule:nonzero;fill:rgb(100%,100%,100%);fill-opacity:1;" d="M 184.335938 207.605469 L 192.335938 207.605469 L 192.335938 220.605469 L 184.335938 220.605469 Z M 184.335938 207.605469 "/>
<g style="fill:rgb(0%,0%,100%);fill-opacity:1;">
  <use xlink:href="#glyph0-2" x="184.335938" y="217.506836"/>
</g>
<path style="fill:none;stroke-width:1.2;stroke-linecap:butt;stroke-linejoin:miter;stroke:rgb(0%,0%,0%);stroke-opacity:1;stroke-miterlimit:10;" d="M 226.066406 154.730469 L 223.605469 141.359375 "/>
<path style="fill:none;stroke-width:1.2;stroke-linecap:butt;stroke-linejoin:miter;stroke:rgb(100%,0%,0%);stroke-opacity:1;stroke-miterlimit:10;" d="M 223.605469 141.359375 L 221.144531 127.992188 "/>
<path style="fill:none;stroke-width:1.2;stroke-linecap:butt;stroke-linejoin:miter;stroke:rgb(0%,0%,0%);stroke-opacity:1;stroke-miterlimit:10;" d="M 253.015625 158.3125 L 226.066406 154.730469 "/>
<path style="fill:none;stroke-width:1.2;stroke-linecap:butt;stroke-linejoin:miter;stroke:rgb(0%,0%,0%);stroke-opacity:1;stroke-miterlimit:10;" d="M 251.164062 151.613281 L 229.601562 148.746094 "/>
<path style="fill:none;stroke-width:1.2;stroke-linecap:butt;stroke-linejoin:miter;stroke:rgb(100%,0%,0%);stroke-opacity:1;stroke-miterlimit:10;" d="M 221.144531 127.992188 L 233.101562 121.523438 "/>
<path style="fill:none;stroke-width:1.2;stroke-linecap:butt;stroke-linejoin:miter;stroke:rgb(0%,0%,100%);stroke-opacity:1;stroke-miterlimit:10;" d="M 233.101562 121.523438 L 245.054688 115.050781 "/>
<path style=" stroke:none;fill-rule:nonzero;fill:rgb(100%,100%,100%);fill-opacity:1;" d="M 217.144531 121.492188 L 226.144531 121.492188 L 226.144531 134.492188 L 217.144531 134.492188 Z M 217.144531 121.492188 "/>
<g style="fill:rgb(100%,0%,0%);fill-opacity:1;">
  <use xlink:href="#glyph0-1" x="217.144531" y="131.393555"/>
</g>
<path style="fill:none;stroke-width:1.2;stroke-linecap:butt;stroke-linejoin:miter;stroke:rgb(0%,0%,100%);stroke-opacity:1;stroke-miterlimit:10;" d="M 245.054688 115.050781 L 254.902344 124.421875 "/>
<path style="fill:none;stroke-width:1.2;stroke-linecap:butt;stroke-linejoin:miter;stroke:rgb(0%,0%,0%);stroke-opacity:1;stroke-miterlimit:10;" d="M 254.902344 124.421875 L 264.75 133.789062 "/>
<path style="fill:none;stroke-width:1.2;stroke-linecap:butt;stroke-linejoin:miter;stroke:rgb(0%,0%,100%);stroke-opacity:1;stroke-miterlimit:10;" d="M 242.613281 121.558594 L 250.492188 129.054688 "/>
<path style="fill:none;stroke-width:1.2;stroke-linecap:butt;stroke-linejoin:miter;stroke:rgb(0%,0%,0%);stroke-opacity:1;stroke-miterlimit:10;" d="M 250.492188 129.054688 L 258.371094 136.550781 "/>
<path style=" stroke:none;fill-rule:nonzero;fill:rgb(100%,100%,100%);fill-opacity:1;" d="M 241.054688 108.550781 L 249.054688 108.550781 L 249.054688 121.550781 L 241.054688 121.550781 Z M 241.054688 108.550781 "/>
<g style="fill:rgb(0%,0%,100%);fill-opacity:1;">
  <use xlink:href="#glyph0-2" x="241.054688" y="118.452148"/>
</g>
<path style="fill:none;stroke-width:1.2;stroke-linecap:butt;stroke-linejoin:miter;stroke:rgb(0%,0%,0%);stroke-opacity:1;stroke-miterlimit:10;" d="M 264.75 133.789062 L 253.015625 158.3125 "/>
<path style="fill:none;stroke-width:1.2;stroke-linecap:butt;stroke-linejoin:miter;stroke:rgb(0%,0%,0%);stroke-opacity:1;stroke-miterlimit:10;" d="M 78.777344 148.886719 L 51.828125 145.304688 "/>
<path style="fill:none;stroke-width:1.2;stroke-linecap:butt;stroke-linejoin:miter;stroke:rgb(0%,0%,0%);stroke-opacity:1;stroke-miterlimit:10;" d="M 75.238281 154.871094 L 53.679688 152.003906 "/>
<path style="fill:none;stroke-width:1.2;stroke-linecap:butt;stroke-linejoin:miter;stroke:rgb(0%,0%,0%);stroke-opacity:1;stroke-miterlimit:10;" d="M 89.148438 174.019531 L 78.777344 148.886719 "/>
<path style="fill:none;stroke-width:1.2;stroke-linecap:butt;stroke-linejoin:miter;stroke:rgb(0%,0%,0%);stroke-opacity:1;stroke-miterlimit:10;" d="M 51.828125 145.304688 L 35.25 166.851562 "/>
<path style="fill:none;stroke-width:1.2;stroke-linecap:butt;stroke-linejoin:miter;stroke:rgb(0%,0%,0%);stroke-opacity:1;stroke-miterlimit:10;" d="M 35.25 166.851562 L 45.621094 191.980469 "/>
<path style="fill:none;stroke-width:1.2;stroke-linecap:butt;stroke-linejoin:miter;stroke:rgb(0%,0%,0%);stroke-opacity:1;stroke-miterlimit:10;" d="M 42.199219 166.925781 L 50.496094 187.027344 "/>
<path style="fill:none;stroke-width:1.2;stroke-linecap:butt;stroke-linejoin:miter;stroke:rgb(0%,0%,0%);stroke-opacity:1;stroke-miterlimit:10;" d="M 45.621094 191.980469 L 72.570312 195.566406 "/>
<path style="fill:none;stroke-width:1.2;stroke-linecap:butt;stroke-linejoin:miter;stroke:rgb(0%,0%,0%);stroke-opacity:1;stroke-miterlimit:10;" d="M 72.570312 195.566406 L 89.148438 174.019531 "/>
<path style="fill:none;stroke-width:1.2;stroke-linecap:butt;stroke-linejoin:miter;stroke:rgb(0%,0%,0%);stroke-opacity:1;stroke-miterlimit:10;" d="M 69.15625 189.511719 L 82.421875 172.273438 "/>
</g>
</svg>

<svg xmlns="http://www.w3.org/2000/svg" xmlns:xlink="http://www.w3.org/1999/xlink" width="300pt" height="300pt" viewBox="0 0 300 300"><defs><symbol overflow="visible"><path d="M.547 1.938V-7.75h5.5v9.688zm.625-.61h4.266v-8.47H1.171zm0 0"/></symbol><symbol overflow="visible" id="a"><path d="M4.328-7.28c-.78 0-1.406.296-1.875.89-.46.585-.687 1.382-.687 2.39 0 1.012.226 1.813.687 2.406.47.586 1.094.875 1.875.875.79 0 1.414-.288 1.875-.874.457-.593.688-1.394.688-2.406 0-1.008-.23-1.805-.687-2.39-.46-.594-1.086-.89-1.875-.89zm0-.892c1.125 0 2.024.383 2.703 1.14C7.708-6.28 8.048-5.27 8.048-4c0 1.262-.34 2.273-1.016 3.03C6.353-.22 5.454.157 4.33.157S2.3-.22 1.625-.97c-.668-.75-1-1.757-1-3.03 0-1.27.332-2.28 1-3.03.676-.76 1.578-1.142 2.703-1.142zm0 0"/></symbol><symbol overflow="visible" id="b"><path d="M1.078-8.016h1.47l3.546 6.704v-6.704h1.062V0H5.688L2.124-6.703V0H1.078zm0 0"/></symbol></defs><g><path fill="#fff" d="M0 0h300v300H0z"/><path d="M131.64 102.473l-10.773-8.29" stroke-width="1.2" stroke="#f00" stroke-miterlimit="10" fill="none"/><path d="M120.867 94.184l-10.773-8.29M122.53 128.09l4.556-12.81" stroke-width="1.2" stroke="#000" stroke-miterlimit="10" fill="none"/><path d="M127.086 115.28l4.555-12.807" stroke-width="1.2" stroke="#f00" stroke-miterlimit="10" fill="none"/><path d="M127.64 95.973h9v13h-9zm0 0" fill="#fff"/><use xlink:href="#a" x="127.641" y="105.874" fill="#f00"/><path d="M110.094 85.895l-11.21 7.687" stroke-width="1.2" stroke="#000" stroke-miterlimit="10" fill="none"/><path d="M98.883 93.582l-11.215 7.684" stroke-width="1.2" stroke="#00f" stroke-miterlimit="10" fill="none"/><path d="M111.47 92.71l-8.974 6.145" stroke-width="1.2" stroke="#000" stroke-miterlimit="10" fill="none"/><path d="M102.496 98.855l-8.97 6.15M87.668 101.266l3.844 13.04" stroke-width="1.2" stroke="#00f" stroke-miterlimit="10" fill="none"/><path d="M91.512 114.305l3.843 13.04" stroke-width="1.2" stroke="#000" stroke-miterlimit="10" fill="none"/><path d="M83.668 94.766h8v13h-8zm0 0" fill="#fff"/><use xlink:href="#b" x="83.668" y="104.667" fill="#00f"/><path d="M95.355 127.344l27.176.746M98.25 121.023l21.738.598M95.355 127.344l-16.578 21.543M122.53 128.09l15.372 22.426M137.902 150.516l-11.738 24.52M137.902 150.516l27.106-2.098M141.105 156.684l21.684-1.68M126.164 175.035l15.37 22.426M132.977 173.664l12.296 17.938M141.535 197.46l27.106-2.097M168.64 195.363l5.868-12.26" stroke-width="1.2" stroke="#000" stroke-miterlimit="10" fill="none"/><path d="M174.508 183.102l5.867-12.258M188.336 214.105l-9.848-9.37" stroke-width="1.2" stroke="#00f" stroke-miterlimit="10" fill="none"/><path d="M178.488 204.734l-9.847-9.37" stroke-width="1.2" stroke="#000" stroke-miterlimit="10" fill="none"/><path d="M190.773 207.598l-7.875-7.496" stroke-width="1.2" stroke="#00f" stroke-miterlimit="10" fill="none"/><path d="M182.898 200.102l-7.878-7.497" stroke-width="1.2" stroke="#000" stroke-miterlimit="10" fill="none"/><path d="M180.375 170.844l-7.684-11.215" stroke-width="1.2" stroke="#00f" stroke-miterlimit="10" fill="none"/><path d="M172.69 159.63l-7.682-11.212" stroke-width="1.2" stroke="#000" stroke-miterlimit="10" fill="none"/><path d="M180.375 170.844l13.477 1.79" stroke-width="1.2" stroke="#00f" stroke-miterlimit="10" fill="none"/><path d="M193.852 172.633l13.472 1.793" stroke-width="1.2" stroke="#000" stroke-miterlimit="10" fill="none"/><path d="M176.375 164.344h8v13h-8zm0 0" fill="#fff"/><use xlink:href="#b" x="176.375" y="174.245" fill="#00f"/><path d="M207.324 174.426l2.46 13.367" stroke-width="1.2" stroke="#000" stroke-miterlimit="10" fill="none"/><path d="M209.785 187.793l2.46 13.37" stroke-width="1.2" stroke="#00f" stroke-miterlimit="10" fill="none"/><path d="M201.527 178.258l1.965 10.695" stroke-width="1.2" stroke="#000" stroke-miterlimit="10" fill="none"/><path d="M203.492 188.953l1.97 10.695" stroke-width="1.2" stroke="#00f" stroke-miterlimit="10" fill="none"/><path d="M207.324 174.426l18.742-19.696" stroke-width="1.2" stroke="#000" stroke-miterlimit="10" fill="none"/><path d="M212.246 201.164l-23.91 12.94" stroke-width="1.2" stroke="#00f" stroke-miterlimit="10" fill="none"/><path d="M208.246 194.664h8v13h-8zm0 0" fill="#fff"/><use xlink:href="#b" x="208.246" y="204.565" fill="#00f"/><path d="M184.336 207.605h8v13h-8zm0 0" fill="#fff"/><use xlink:href="#b" x="184.336" y="217.507" fill="#00f"/><path d="M226.066 154.73l-2.46-13.37" stroke-width="1.2" stroke="#000" stroke-miterlimit="10" fill="none"/><path d="M223.605 141.36l-2.46-13.368" stroke-width="1.2" stroke="#f00" stroke-miterlimit="10" fill="none"/><path d="M253.016 158.313l-26.95-3.583M251.164 151.613l-21.562-2.867" stroke-width="1.2" stroke="#000" stroke-miterlimit="10" fill="none"/><path d="M221.145 127.992l11.957-6.47" stroke-width="1.2" stroke="#f00" stroke-miterlimit="10" fill="none"/><path d="M233.102 121.523l11.953-6.472" stroke-width="1.2" stroke="#00f" stroke-miterlimit="10" fill="none"/><path d="M217.145 121.492h9v13h-9zm0 0" fill="#fff"/><use xlink:href="#a" x="217.145" y="131.394" fill="#f00"/><path d="M245.055 115.05l9.847 9.372" stroke-width="1.2" stroke="#00f" stroke-miterlimit="10" fill="none"/><path d="M254.902 124.422l9.848 9.367" stroke-width="1.2" stroke="#000" stroke-miterlimit="10" fill="none"/><path d="M242.613 121.56l7.88 7.495" stroke-width="1.2" stroke="#00f" stroke-miterlimit="10" fill="none"/><path d="M250.492 129.055l7.88 7.496" stroke-width="1.2" stroke="#000" stroke-miterlimit="10" fill="none"/><path d="M241.055 108.55h8v13h-8zm0 0" fill="#fff"/><use xlink:href="#b" x="241.055" y="118.452" fill="#00f"/><path d="M264.75 133.79l-11.734 24.523M78.777 148.887l-26.95-3.582M75.238 154.87l-21.558-2.866M89.148 174.02l-10.37-25.133M51.828 145.305L35.25 166.852M35.25 166.852l10.37 25.128M42.2 166.926l8.296 20.1M45.62 191.98l26.95 3.586M72.57 195.566l16.578-21.546M69.156 189.512l13.266-17.24" stroke-width="1.2" stroke="#000" stroke-miterlimit="10" fill="none"/></g></svg>
